X:1
T:Praise, My Soul, the King of Heaven
T:Text: Henry F. Lyte, 1834, alt.; based on Psalm 103 Tune: John Goss, 1869
T:87 87 87 LAUDA ANIMA www.hymnary.org/text/praise_my_soul_the_king_of_heaven
T:Praise, My Soul, the King of Heaven
T:This hymn is in the public domain. You may freely use this score for personal and congregational worship. If you reproduce the score, please credit Hymnary.org as the source. 
T:This hymn is in the public domain. You may freely use this score for personal and congregational worship. If you reproduce the score, please credit Hymnary.org as the source. 
T:This hymn is in the public domain. You may freely use this score for personal and congregational worship. If you reproduce the score, please credit Hymnary.org as the source. 
T:This hymn is in the public domain. You may freely use this score for personal and congregational worship. If you reproduce the score, please credit Hymnary.org as the source. 
T:This hymn is in the public domain. You may freely use this score for personal and congregational worship. If you reproduce the score, please credit Hymnary.org as the source. 
T:This hymn is in the public domain. You may freely use this score for personal and congregational worship. If you reproduce the score, please credit Hymnary.org as the source. 
T:This hymn is in the public domain. You may freely use this score for personal and congregational worship. If you reproduce the score, please credit Hymnary.org as the source. 
T:This hymn is in the public domain. You may freely use this score for personal and congregational worship. If you reproduce the score, please credit Hymnary.org as the source. 
T:This hymn is in the public domain. You may freely use this score for personal and congregational worship. If you reproduce the score, please credit Hymnary.org as the source. 
Z:This hymn is in the public domain. You may freely use this score for personal and congregational worship. If you reproduce the score, please credit Hymnary.org as the source.
%%score ( 1 2 ) { ( 3 4 9 ) | ( 5 6 7 8 ) } ( 10 11 12 )
L:1/8
M:2/4
K:D
V:1 treble nm="SOPRANO ALTO" snm="S. A."
V:2 treble 
V:3 treble nm="Piano" snm="Pno."
V:4 treble 
V:9 treble 
V:5 bass 
V:6 bass 
V:7 bass 
V:8 bass 
V:10 bass nm="Bass" snm="B."
V:11 bass 
V:12 bass 
V:1
"^1" A2 A2 | A2 A2 | d2 c2 | B4 | A4 | G2 F2 | B2 A2 | F2 G2 | E4 | F2 F2 | F2 F2 | B2 A2 | %12
w: Praise, my|soul, the|King of|heav-|en;|to his|feet your|trib- ute|bring.|Ran- somed,|healed, re-|stored, for-|
 A2 ^G2 | A2 B2 | c2 d2 | F2 ^G2 | A4 | d2 c2 | B2 A2 |1 d2 c2 | B2 A2 | B2 A2 | G2 E2 | D2 C2 | %24
w: gi- ven,|ev- er-|more his|prais- es|sing.|Al- le-|lu- ia,|al- le-|lu- ia!|Praise the|ev- er-|last- ing|
 D4 ||"^Page 2""^2" A2 A2 | A2 A2 | d2 c2 | B4 |"^Praise, My Soul, the King of Heaven" A4 | G2 F2 | %31
w: King!|Praise him|for his|grace and|fa-|vor|to his|
 B2 A2 | F2 G2 | E4 | F2 F2 | F2 F2 | B2 A2 | A2 ^G2 | A2 B2 | c2 d2 | F2 ^G2 | A4 | d2 c2 | %43
w: peo- ple|in dis-|tress.|Praise him,|still the|same as|ev- er,|slow to|chide, and|swift to|bless.|Al- le-|
 B2 A2 | d2 c2 | B2 A2 | B2 A2 | G2 E2 | D2 C2 | D4 ||"^Page 3""^3" A2 A2 | A2 A2 | d2 c2 | B4 | %54
w: lu- ia,|al- le-|lu- ia!|Glo- rious|in his|faith- ful-|ness!|Fa- ther-|like he|tends and|spares|
"^Praise, My Soul, the King of Heaven" A4 | G2 F2 | B2 A2 | F2 G2 | E4 | F2 F2 | F2 F2 | B2 A2 | %62
w: us;|well our|fee- ble|frame he|knows.|In his|hand he|gent- ly|
 A2 ^G2 | A2 B2 | c2 d2 | F2 ^G2 | A4 | d2 c2 | B2 A2 | d2 c2 | B2 A2 | B2 A2 | G2 E2 | D2 C2 | %74
w: bears us,|res- cues|us from|all our|foes.|Al- le-|lu- ia,|al- le-|lu- ia!|Wide- ly|yet his|mer- cy|
 D4 ||"^Page 4""^4" A2 A2 | A2 A2 | d2 c2 | B4 |"^Praise, My Soul, the King of Heaven" A4 | G2 F2 | %81
w: flows!|An- gels,|help us|to a-|dore|him;|you be-|
 B2 A2 | F2 G2 | E4 | F2 F2 | F2 F2 | B2 A2 | A2 ^G2 | A2 B2 | c2 d2 | F2 ^G2 | A4 | d2 c2 | %93
w: hold him|face to|face.|Sun and|moon, bow|down be-|fore him,|dwell- ers|all in|time and|space.|Al- le-|
 B2 A2 | d2 c2 | B2 A2 | B2 A2 | G2 E2 | D2 C2 | D4 |] %100
w: lu- ia,|al- le-|lu- ia!|Praise with|us the|God of|grace!|
V:2
 x4 | x4 | x4 | x4 | x4 | x4 | x4 | x4 | x4 | x4 | x4 | x4 | x4 | x4 | x4 | x4 | x4 | x4 | x4 |1 %19
 x4 | x4 | x4 | x4 | x4 | x4 || D2 D2 | C2 C2 | D2 A2 | (A2 G2) | F4 | D2 D2 | D2 D2 | D2 E2 | C4 | %34
 C2 E2 | D2 C2 | B,2 B,2 | D2 D2 | C2 E2 | E2 D2 | D2 D2 | C4 | D3 D | D2 C2 | D2 EF | G2 G2 | %46
 F2 E2 | D2 B,2 | A,2 A,2 | A,4 || x4 | x4 | x4 | x4 | x4 | x4 | x4 | x4 | x4 | x4 | x4 | x4 | x4 | %63
 x4 | x4 | x4 | x4 | x4 | x4 | x4 | x4 | x4 | x4 | x4 | x4 || x4 | x4 | x4 | x4 | x4 | x4 | x4 | %82
 x4 | x4 | x4 | x4 | x4 | x4 | x4 | x4 | x4 | x4 | x4 | x4 | x4 | x4 | x4 | x4 | x4 | x4 |] %100
V:3
 A4- | A4- | d2 c2 | B4 | [FA]4 | G2 F2 | [DB]2 A2 | F2 [EG]2 | [CE]4 | [CF-]4 | F4 | B2 A2 | %12
 [DA]2 [=F^G]2 | A2 B2 | c2 d2 | F2 ^G2 | A4 | d2 c2 | B2 A2 |1 d2 c2 | B2 A2 | B2 A2 | [EG]2 E2 | %23
 D2 C2 | D4 || z4 | z4 | z4 | z4 | z4 | z4 | z4 | z4 | z4 | z4 | z4 | z4 | z4 | z4 | z4 | z4 | z4 | %42
 z4 | z4 | z4 | z4 | z4 | z4 | z4 | z4 || A4- | A4 | d2 c2 | B4 | A4 | [EG]2 [^DF]2 | [EB]2 [EA]2 | %57
 F2 [^DG]2 | E4 | [DF-]4 | [EF]4 | [DB]2 [^DA]2 | A2 ^G2 | [EA]2 B2 | c2 d2 | F2 ^G2 | A4- | %67
 d2 c2 | B2 A2 | d2 c2 | B2 A2 | B2 A2 | G2 E2 | D2 C2 | D4 || A4- | A4 | d2 c2 | B4 | [FA]4 | %80
 G2 F2 | B2 A2 | F2 G2 | E4 | F4- | F4 | B2 A2- | A2 ^G2 | A2 B2 | c2 d2 | F2 ^G2 | A4 | d2 c2 | %93
 B2 A2 | d2 c2 | B2 A2 | B2 A2 | G2 E2 | D2 C2 | D4 |] %100
V:4
 D4 | C4 | [DA-]4 | [DA]2 [EG]2 | D4- | D4 | B,2 C2 | D2 B,2 | A,4 | ^A,4 | B,2 [^A,E]2 | [B,D-]4 | %12
 B,4 | E4- | E2 D2- | D4 | C4 | D4 | [EG]4 |1 [DF]4 | [CG]4 | [=C^DF]4 | B,4 | A,4- | A,4 || x4 | %26
 x4 | x4 | x4 | x4 | x4 | x4 | x4 | x4 | x4 | x4 | x4 | x4 | x4 | x4 | x4 | x4 | x4 | x4 | x4 | %45
 x4 | x4 | x4 | x4 | x4 || F4- | F4- | F4- | F2 [C-^E]2 | [CF]2 [B,-^D]2 | B,2 A,2 | B,2 =C2 | %57
 E2 B,2 | B,2 [A,-^C]2 | A,4 | ^A,4 | B,4- | [B,E-]4 | A,2 [=DE-]2 | [CE]2 D2- | D4 | C4 | [DA]4 | %68
 [EG]4 | [DF]4 | E4 | [=CF]4 | [B,E]2 _B,2 | A,4 | A,4 || [DF-]4 | [CF-]4 | [DF]4- | [DF]2 E2- | %79
 [CE]2 D2 | E2 D2- | D4- | D2 E2 | C4 | [^A,-C]4 | A,4 | B,2 C2 | D2 B,2 | [A,E-]2 E2 | E2 D2 | %90
 D4 | C4 | D4- | D2 C2 | D4- | D2 G2 | [D-F]4 | D2 B,2 | A,4- | A,4 |] %100
V:5
 x4 | x4 | x4 | B,2 x2 | x4 | x4 | x4 | x4 | x4 | x4 | x4 | x4 | x4 | x4 | x4 | x4 | x4 | x4 | %18
 x4 |1 x4 | x4 | x4 | x4 | x4 | x4 || z4 | z4 | z4 | z4 | z4 | z4 | z4 | z4 | z4 | z4 | z4 | z4 | %37
 z4 | z4 | z4 | z4 | z4 | z4 | z4 | z4 | z4 | z4 | z4 | z4 | z4 || x4 | x4 | x4 | x4 | x4 | x4 | %56
 x4 | x4 | x4 | x4 | x4 | x4 | x4 | x4 | x4 | x4 | x4 | x4 | x4 | x4 | x4 | x4 | x4 | x4 | x4 || %75
 x4 | x4 | x4 | x4 | x4 | x4 | x4 | x4 | x4 | x4 | x4 | x4 | x4 | x4 | x4 | x4 | x4 | x4 | x4 | %94
 x4 | x4 | x4 | x4 | x4 | x4 |] %100
V:6
 [D,F,A,]4 | [E,G,A,]4 | [F,A,]4 | x2 C2 | A,4 | D,4 | G,2 E,2 | D,2 E,2 | A,,2 G,2 | F,2 E,2 | %10
 D,2 C,2 | B,,2 =F,2 | E,2 D,2 | [C,A,]2 [E,^G,]2 | A,4 | B,4 | [E,A,]2 =G,2 | F,4 | E,4 |1 F,4 | %20
 G,4 | [^D,F,]4 | [E,G,]4- | [E,G,]4 | [D,F,]4 || x4 | x4 | x4 | x4 | x4 | x4 | x4 | x4 | x4 | x4 | %35
 x4 | x4 | x4 | x4 | x4 | x4 | x4 | x4 | x4 | x4 | x4 | x4 | x4 | x4 | x4 || A,4- | A,4 | ^G,4- | %53
 G,4 | F,2 B,,2 | E,2 F,2 | G,2 A,2- | A,4 | G,4 | F,4 | F,4 | F,4 | E,4 | F,2 ^G,2 | A,4 | B,4 | %66
 A,2 =G,2 | F,4 | E,4 | D,4 | G,4 | F,4 | G,4 | F,2 [E,G,]2 | [A,,D,F,]4 || A,4- | A,4- | A,4- | %78
 A,2 ^G,2 | A,4- | A,4 | G,2 A,2 | B,4 | A,4 | F,4- | F,4- | F,4- | F,2 E,2 | E,2 ^G,2 | A,4 | %90
 B,4 | A,2 =G,E, | [D,F,]4 | [E,G,]4 | [F,A,]4 | [G,B,]2 [E,C]2 | [D,D]2 C2 | B,2 G,2 | %98
 F,2 [E,G,]2 | [D,F,]4 |] %100
V:7
 D,,4 | E,,4 | F,,4 | x4 | D,2 C,2 | B,,2 A,,2 | G,,2 A,,2 | B,,2 E,,2 | A,,2 G,,2 | F,,2 E,,2 | %10
 D,,2 C,2 | B,,2 =F,,2 | E,,2 D,,2 | C,,2 E,,2 | A,,2 F,2 | [D,F,]2 E,2- | A,,4 | B,,4 | C,4 |1 %19
 D,4 | E,4 | F,,4 | G,,4 | A,,4 | D,,4 || x4 | x4 | x4 | x4 | x4 | x4 | x4 | x4 | x4 | x4 | x4 | %36
 x4 | x4 | x4 | x4 | x4 | x4 | x4 | x4 | x4 | x4 | x4 | x4 | x4 | x4 || D,4 | C,4 | B,,4 | C,4 | %54
 F,,2 B,,2 | E,,2 F,,2 | G,,2 A,,2 | =C,2 B,,2 | E,2 A,,2 | D,4 | C,4 | B,,4 | E,,4 | F,,2 ^G,,2 | %64
 A,,2 F,2 | D,2 E,2 | A,,4- | A,,4- | A,,4 | B,,4 | C,4 | ^D,4 | E,2 G,,2 | A,,4- | D,,4 || D,4 | %76
 F,4 | B,,4 | E,4 | A,,2 B,,2 | C,2 D,2 | G,,2 F,,2 | B,,2 E,,2 | A,,2 G,,2 | F,,2 ^G,,2 | %85
 C,2 E,2 | D,2 C,2 | B,,2 E,D, | C,2 E,2 | A,2 F,2 | D,2 E,2 | A,,2 =G,,E,, | D,,4- | D,,4- | %94
 D,,4- | D,,4- | D,,2 C,2 | B,,2 G,,2 | A,,4- | [D,,A,,]4 |] %100
V:8
 x4 | x4 | x4 | [G,,G,]4 | x4 | x4 | x4 | x4 | x4 | x4 | x4 | x4 | x4 | x4 | x4 | x4 | x4 | x4 | %18
 x4 |1 x4 | x4 | x4 | x4 | x4 | x4 || x4 | x4 | x4 | x4 | x4 | x4 | x4 | x4 | x4 | x4 | x4 | x4 | %37
 x4 | x4 | x4 | x4 | x4 | x4 | x4 | x4 | x4 | x4 | x4 | x4 | x4 || x4 | x4 | x4 | x4 | x4 | x4 | %56
 x4 | x4 | x4 | x4 | x4 | x4 | x4 | x4 | x4 | x4 | x4 | x4 | x4 | x4 | x4 | x4 | x4 | x4 | x4 || %75
 x4 | x4 | x4 | x4 | x4 | x4 | x4 | x4 | x4 | x4 | x4 | x4 | x4 | x4 | x4 | x4 | x4 | x4 | x4 | %94
 x4 | x4 | x4 | x4 | x4 | x4 |] %100
V:9
 x4 | x4 | x4 | x4 | x4 | x4 | x4 | x4 | x4 | x4 | x4 | x4 | x4 | x4 | x4 | x4 | x4 | x4 | x4 |1 %19
 x4 | x4 | x4 | x4 | x4 | x4 || x4 | x4 | x4 | x4 | x4 | x4 | x4 | x4 | x4 | x4 | x4 | x4 | x4 | %38
 x4 | x4 | x4 | x4 | x4 | x4 | x4 | x4 | x4 | x4 | x4 | x4 || x4 | x4 | x4 | x4 | x4 | x4 | x4 | %57
 x4 | x4 | x4 | x4 | x4 | x4 | x4 | x4 | x4 | x4 | x4 | x4 | x4 | x4 | x4 | x4 | x4 | x4 || x4 | %76
 x4 | x4 | x2 ED | x4 | x4 | x4 | x4 | x4 | x4 | E2 C2 | x4 | x4 | x4 | x4 | x4 | x4 | x4 | x4 | %94
 x4 | x4 | x4 | x4 | x4 | x4 |] %100
V:10
 z4 | z4 | z4 | z4 | z4 | z4 | z4 | z4 | z4 | z4 | z4 | z4 | z4 | z4 | z4 | z4 | z4 | z4 | z4 |1 %19
 z4 | z4 | z4 | z4 | z4 | z4 || x4 | x4 | x4 | x4 | x4 | x4 | x4 | x4 | x4 | x4 | x4 | x4 | x4 | %38
 x4 | x4 | x4 | x4 | x4 | x4 |"^The accompaniment for stanza 2 may be used for all stanzas." x4 | %45
 x4 | x4 | x4 | x4 | x4 || z4 | z4 | z4 | z4 | z4 | z4 | z4 | z4 | z4 | z4 | z4 | z4 | z4 | z4 | %64
 z4 | z4 | z4 | z4 | z4 | z4 | z4 | z4 | z4 | z4 | z4 || z4 | z4 | z4 | z4 | z4 | z4 | z4 | z4 | %83
 z4 | z4 | z4 | z4 | z4 | z4 | z4 | z4 | z4 | z4 | z4 | z4 | z4 | z4 | z4 | z4 | z4 |] %100
V:11
 x4 | x4 | x4 | x4 | x4 | x4 | x4 | x4 | x4 | x4 | x4 | x4 | x4 | x4 | x4 | x4 | x4 | x4 | x4 |1 %19
 x4 | x4 | x4 | x4 | x4 | x4 || F,2 F,2 | G,2 G,2 | A,2 A,2 | (B,2 C2) | D4 | G,2 A,2 | G,2 A,2 | %32
 B,2 B,2 | (A,2 G,2) | F,2 C,2 | D,2 E,2 | F,2 B,2 | B,2 B,2 | A,2 D2 | C2 A,2 | B,2 B,2 | A,4 | %42
 A,3 A, | G,2 G,2 | F,2 E,D, | E,2 A,2 | D2 C2 | B,2 G,2 | F,2 E,G, | F,4 || x4 | x4 | x4 | x4 | %54
 x4 | x4 | x4 | x4 | x4 | x4 | x4 | x4 | x4 | x4 | x4 | x4 | x4 | x4 | x4 | x4 | x4 | x4 | x4 | %73
 x4 | x4 || x4 | x4 | x4 | x4 | x4 | x4 | x4 | x4 | x4 | x4 | x4 | x4 | x4 | x4 | x4 | x4 | x4 | %92
 x4 | x4 | x4 | x4 | x4 | x4 | x4 | x4 |] %100
V:12
 x4 | x4 | x4 | x4 | x4 | x4 | x4 | x4 | x4 | x4 | x4 | x4 | x4 | x4 | x4 | x4 | x4 | x4 | x4 |1 %19
 x4 | x4 | x4 | x4 | x4 | x4 || D,2 D,2 | E,2 E,2 | F,2 F,2 | G,4 | D,4 | B,,2 D,2 | G,2 F,2 | %32
 B,2 E,2 | A,,4 | ^A,,2 A,,2 | B,,2 C,2 | D,2 ^D,2 | E,2 ^E,2 | F,2 ^G,2 | A,2 F,2 | D,2 E,2 | %41
 A,,4 | F,3 F,, | G,,2 A,,2 | B,,3 B,, | C,2 C,2 | D,2 E,F, | G,2 G,,2 | A,,2 A,,2 | D,4 || x4 | %51
 x4 | x4 | x4 | x4 | x4 | x4 | x4 | x4 | x4 | x4 | x4 | x4 | x4 | x4 | x4 | x4 | x4 | x4 | x4 | %70
 x4 | x4 | x4 | x4 | x4 || x4 | x4 | x4 | x4 | x4 | x4 | x4 | x4 | x4 | x4 | x4 | x4 | x4 | x4 | %89
 x4 | x4 | x4 | x4 | x4 | x4 | x4 | x4 | x4 | x4 | x4 |] %100

